X:0867
M:C
L:1/8
Q:1/2=104
K:G
bgdg b2ag|afdf a2gf|geGg fdBf|(3(gab) Bd e2ef |
gGGA B2AG|ABcd e2eg|gbge dcBA|   EAFD    G2G2|]

